internal/xmp/testdata/lightroom.xmp
<?xpacket begin="﻿" id="W5M0MpCehiHzreSzNTczkc9d"?>
<x:xmpmeta xmlns:x="adobe:ns:meta/" x:xmptk="Adobe XMP Core 5.6-c140">
 <rdf:RDF xmlns:rdf="http://www.w3.org/1999/02/22-rdf-syntax-ns#">
  <rdf:Description rdf:about=""
    xmlns:xmp="http://ns.adobe.com/xap/1.0/"
    xmlns:dc="http://purl.org/dc/elements/1.1/"
    xmlns:lr="http://ns.adobe.com/lightroom/1.0/"
    xmlns:crs="http://ns.adobe.com/camera-raw-settings/1.0/"
   xmp:Rating="4"
   xmp:Label="Rot"
   crs:Version="15.0"
   crs:Exposure2012="+0.35"
   crs:Contrast2012="+12"
   crs:Temperature="5200"
   crs:ProcessVersion="15.4">
   <dc:title>
    <rdf:Alt>
     <rdf:li xml:lang="x-default">Sunrise over Tokyo</rdf:li>
    </rdf:Alt>
   </dc:title>
   <dc:description>
    <rdf:Alt>
     <rdf:li xml:lang="x-default">Shot from the hotel roof at dawn.</rdf:li>
    </rdf:Alt>
   </dc:description>
   <dc:subject>
    <rdf:Bag>
     <rdf:li>Travel</rdf:li>
     <rdf:li>Japan</rdf:li>
     <rdf:li>Tokyo</rdf:li>
    </rdf:Bag>
   </dc:subject>
   <lr:hierarchicalSubject>
    <rdf:Bag>
     <rdf:li>Travel|Japan|Tokyo</rdf:li>
    </rdf:Bag>
   </lr:hierarchicalSubject>
  </rdf:Description>
 </rdf:RDF>
</x:xmpmeta>
<?xpacket end="w"?>
